!!!COM: Charles Gounod
!!!CNT: Francais
!!!TXO: Francais
!!!OTL: "La pa^querette"
!!!LYR: Dumas
!!!OPR: 
!!!OPS: Op. 
!!!ONM: No.
!!!ENC: Emily Thomas
!!!YOR: CD Sheet Music French Art Songs, The Ultimate Collection
!!!YOR: CD Sheet Music, LLC 2003
!!!ODT: 1871/
!!NB: Vocal melody and text encoded.
**kern	**silbe
=1	=1
*clefG2	*
*k[b-]	*
*M3/4	*
*MM[Allegretto]	*
2.r	.
=2	=2
2.r	.
=3	=3
2.r	.
=4	=4
2.r	.
=5	=5
4r	.
8r	.
{8a	{Pa^-
8g	-quer-
8f	-et-
=6	=6
8g	-te
8a	gen-
4cc	-til-
8b-}	-le,}
8r	.
=7	=7
{8a	{Sur
8b-	qui
4dd	bril-
8cc}	-le}
8r	.
=8	=8
{8b-	{Un
8cc	mat-
4ee	-in
8dd	seu-
8cc	-le-
=9	=9
4c	-ment,
8r	.
8cc	La
8dd	gou-
8ee	-tte
=10	=10
8ff	de
8dd	ro-
4bn	-se/-
8bn}	-e,}
8r	.
=11	=11
{8gg	{De/-
8ee	-po-
4cc	-se/-
8cc}	-e}
8r	.
=12	=12
{8ee	{Par
8dd	Phoe-
4cc	-bs,
8a	ton
8bn	a-
=13	=13
4cc}	-mant!}
8r	.
{8cc	{Ma
8cc	bel-
8cc	-le
=14	=14
8cc	pa^-
8ee-	-que-
4dd-	-ret-
8ff	-te
8r	.
=15	=15
8b-	Si
8dd-	co-
4cc	-quet-
8ee-}	-te}
8r	.
=16	=16
8r	.
{8a-	{Pen-
8b-	-chant
8cc	sur
8ee-	le
8dd-	sil-
=17	=17
4cc	-lon,
8r	.
8cc	Ta
8dd	char-
8een	-man-
=18	=18
8ee	-te
8ff	co-
4ff	-rol-
8an}	-le}
8r	.
=19	=19
{8g	{D'ou\
8b-	s'en-
4ee	-vo-
8dd	-le
8r	.
=20	=20
8cc	Quel-
8a	-que
4f	blanc
8g	pa-
8a	-pail-
=21	=21
[4f	-lon!
8f]}	|}
8r	.
4r	.
=22	=22
2.r	.
=23	=23
2.r	.
=24	=24
2.r	.
=25	=25
2.r	.
=26	=26
4r	.
8r	.
{8a	{Sais-
8g	-tu,
8f	pau-
=27	=27
8g	-vre
8a	pet-
4cc	-i-
8b-	-te
8r	.
=28	=28
8a	Mar-
8b-	-guer-
4dd	-i-
8cc}	-te.}
{8a	{Quel
=29	=29
8b-	sort
8cc	te
4.ee	fait
8dd	le
=30	=30
4cc}	ciel?}
8r	.
{8cc	{A-
8dd	-vant
8ee	que
=31	=31
8ff	ta
8dd	cor-
4bn	-beil-
8bn	-le
8r	.
=32	=32
8gg	A
8ee	l'a-
4cc	-beil-
8cc	-le
8r	.
=33	=33
8ee	Ait
8dd	don-
4cc	-ne/
8a	tout
8bn	son
=34	=34
4cc}	miel!}
8r	.
{8cc	{A-
8cc	-vant
8cc	que
=35	=35
8cc	tu-
8ee-	-te
4dd-	fa-
8ff	-nes
8r	.
=36	=36
8b-	Des
8dd-	pro-
4cc	-fa-
8ee-}	-nes,}
8r	.
=37	=37
8r	.
{8a-	{Par
8b-	i-
8cc	-ci
8ee-	pas-
8dd-	-se-
=38	=38
4cc}	-ront,}
8r	.
{8cc	{Fon-
8ddn	-lant
8een	d'un
=39	=39
8een	pas-
8ff	a-
4ff	-ler-
8an	-te
8r	.
=40	=40
8g	L'her-
8b-	-be
4ee	ver-
8dd	-te
8r	.
=41	=41
8cc	Ou\
8a	se
4f	ca-
8g	-che
8a	ton
=42	=42
[4f	front!
8f]}	|}
8r	.
4r	.
=43	=43
2.r	.
=44	=44
2.r	.
=45	=45
2.r	.
=46	=46
2.r	.
=47	=47
4r	.
8r	.
{8a	{Ou\
8g	tu
8f	ver-
=48	=48
8g	-ras,
8a	peut-
4cc	-e^-
8b-}	-tre.}
8r	.
=49	=49
{8a	{Ap-
8b-	-pa-
4dd	-rai^-
8cc}	-tre,}
8r	.
=50	=50
8r	.
{8b-	{La\-
8dd	-bas
8cc	pre\s
8ee	du
8dd	buis-
=51	=51
4cc}	-son,}
8r	.
{8cc	{Quel-
8dd	-que
8ee	vieil-
=52	=52
8ff	-le
8dd	gla-
4bn	-neu-
8bn}	-se,}
8r	.
=53	=53
{8gg	{Mois-
8ee	-son-
4cc	-neu-
8cc	-se
8r	.
=54	=54
8ee	Re/-
8dd	-col-
4cc	-tant
8a	sa
8bn	mois-
=55	=55
4cc}	-son!}
8r	.
{8cc	{Il
8cc	faut
8cc	que-
=56	=56
8cc	-tou-
8ee-	-te
4dd-	cho-
8ff}	-se,}
8r	.
=57	=57
{8b-	{Fille
8cc-	ou
4cc	ro-
8ee-}	-se.}
8r	.
=58	=58
8r	.
{8a-	{Soit
8b-	bris-
8cc	-e/e
8ee-	a\
8dd-	son
=59	=59
4cc}	tour,}
8r	.
{8cc	{A
8ddn	l'u-
8een	-ne
=60	=60
8ee	c'est
8ff	la
4ff	feuil-
8an	-le
8r	.
=61	=61
8g	Que
8b-	l'on
4ee	cueil-
8dd}	-le,}
8r	.
=62	=62
8r	.
{8cc	{A
8a	l'au-
8f	-tre
8g	c'est
8a	l'a-
=63	=63
[4f	-mour!
8f]}	|}
8r	.
4r	.
==	==
*-	*-
